X:700
T:Old Torn Petticoat
R:Reel
N:I combined parts of Sully's version with a version from the Web
B:Sully's Irish Music Book
M:4/4
L:1/8
Q:1/4=200
K:Ador
AB|:c2Bc AGEF|G2BG dGBG|c2Bc AGEF|GABG A2AB|
cABG AGEF|G2BG dGBG|cABG AGED|[1 EAAG A2:|[2 GABG A2
|:AB|cdef g2eg|aged cAA2|cdef g2ed|eaag a2ga|
bagb agef|gfge dBGB|cABG AGED|GABG A2:|]
